X:9
T:Planxty Irwin
R:carolan
C:Turlough O'Carolan (1670-1738)
H:Also in G, #2
Z:id:hn-carolan-9
M:3/4
L:1/8
K:D
|: A | d2c | B>cd | A2G | F>ED | G2E | F>GA | C2D | E2c |
d2c | B>cd | A2G | F>ED | G2E | F>GA | D2E | D2 :|
|: A| d2d | d>cd | e>fe | ecA | f2f e>fd | c>dB | ABc |
d2c | B>cd| A2G | F>ED | G2E | F>GA | D2E | D2 :|
<end>
<start>
